X: 1
T: Ragtime Annie $1(R-67)
I: Ragtime Annie	R-67	D	?
%%musicspace	0.0cm
M: C|
R: rag
K: D
FE| "D"DFBF AFBF| DFBF A2FE| DEFG ABAF| "A"A2c2 c2cB|
    "A"ABcA B2cB| ABcA BAcB| ABcd egfe| "D"d2dc d2:|
fg| "D"a2ab afd2| A6 fg| a2ab agf2| "G"g6 ef|
    "A"gfef gfef| gagf e2ef| gagf edcB| "D"A6 fg|
    "D"a2ab afdB| A2AB A2A2| [F4d4] "C"[E4=c4]| "G"[G6B6] A2|
    "G"B2b2 b2ag| "D"f2a2 a2gf| "A"A2ef gfec| "D"d4 z2 |]

